static/logos/descript-glyph-color.svg

<svg width="50" height="51" viewBox="0 0 50 51" fill="none" xmlns="http://www.w3.org/2000/svg">
<g clip-path="url(#clip0_1_3087)">
<path fill-rule="evenodd" clip-rule="evenodd" d="M6.52344 45.6795C6.52344 48.4236 8.29842 50.2034 11.0346 50.2034L24.2149 50.2036C32.0777 50.2036 38.5097 47.5355 42.8827 42.8649H6.52344V45.6795ZM24.2149 0.000251017L11.0346 0C8.29842 0 6.52344 1.77996 6.52344 4.52408V7.33877H42.8827C38.5097 2.66805 32.0777 0.000251017 24.2149 0.000251017ZM35.7175 32.2551C35.7175 34.4751 37.1594 35.9154 39.3827 35.9154H47.2807C48.1759 33.6874 48.7773 31.2379 49.0571 28.5947H39.3827C37.1594 28.5947 35.7175 30.0348 35.7175 32.2551ZM24.7703 17.9665C24.7703 20.1868 26.2125 21.6268 28.4358 21.6268H49.0571C48.7773 18.9836 48.1759 16.5342 47.2807 14.3062H28.4358C26.2125 14.3062 24.7703 15.7463 24.7703 17.9665ZM28.4333 32.2551C28.4333 30.0348 26.9911 28.5947 24.7679 28.5947H6.52344V35.9154H24.7679C26.9911 35.9154 28.4333 34.4753 28.4333 32.2551ZM17.486 17.9665C17.486 15.7463 16.044 14.3062 13.8208 14.3062H6.52344V21.6268H13.8208C16.044 21.6268 17.486 20.1868 17.486 17.9665Z" fill="#0062FF"/>
</g>
<defs>
<clipPath id="clip0_1_3087">
<rect width="50" height="50.6849" fill="white"/>
</clipPath>
</defs>
</svg>

<svg xmlns="http://www.w3.org/2000/svg" width="62.745" height="64" fill="none" viewBox="0 0 50 51"><g clip-path="url(#a)"><path fill="#0062FF" fill-rule="evenodd" d="M6.523 45.68c0 2.744 1.775 4.523 4.512 4.523h13.18c7.863 0 14.295-2.668 18.668-7.338H6.523v2.814ZM24.215 0h-13.18C8.298 0 6.523 1.78 6.523 4.524V7.34h36.36C38.51 2.668 32.078 0 24.215 0Zm11.503 32.255c0 2.22 1.441 3.66 3.665 3.66h7.898c.895-2.228 1.496-4.677 1.776-7.32h-9.674c-2.224 0-3.666 1.44-3.666 3.66ZM24.77 17.966c0 2.22 1.442 3.66 3.666 3.66h20.621c-.28-2.642-.881-5.092-1.776-7.32H28.436c-2.224 0-3.666 1.44-3.666 3.66Zm3.663 14.29c0-2.221-1.442-3.661-3.665-3.661H6.523v7.32h18.245c2.223 0 3.665-1.44 3.665-3.66Zm-10.947-14.29c0-2.22-1.442-3.66-3.665-3.66H6.523v7.32h7.298c2.223 0 3.665-1.44 3.665-3.66Z" clip-rule="evenodd"/></g><defs><clipPath id="a"><path fill="#fff" d="M0 0h50v50.685H0z"/></clipPath></defs></svg>
